X:58
T:B058-  Cavalilly Man
S:(2nd/2)
Q:1/4=120
L:1/4
M:6/4
K:Dm
c|defe2c|defA2A|ABcc2c|efge3/2d/2c|\
defe2c|defA2A|BAGA2A|Addd2|]

